;FLAVOR:Marlin
;TIME:3815
;Filament used: 4.13626m
;Layer height: 0.2
;MINX:58.771
;MINY:69.439
;MINZ:0.3
;MAXX:141.23
;MAXY:131.54
;MAXZ:59.9
;Generated with Cura_SteamEngine 4.1.0
M140 S60
M105
M190 S60
M104 S200
M105
M109 S200
M82 ;absolute extrusion mode
G21 ;metric values
G90 ;absolute positioning
M82 ;set extruder to absolute mode
M107 ;start with the fan off
G28 X0 Y0 ;move X/Y to min endstops
G28 Z0 ;move Z to min endstops
G1 Z15.0 F9000 ;move the platform down 15mm
G92 E0 ;zero the extruded length
G1 F200 E3 ;extrude 3mm of feed stock
G92 E0 ;zero the extruded length again
G1 F9000
;Put printing message on LCD screen
M117 Printing...
G92 E0
G92 E0
G1 F1500 E-6.5
;LAYER_COUNT:299
;LAYER:0
M107
G0 F3600 X68.985 Y71.653 Z0.3
;TYPE:SKIRT
G1 F1500 E0
G1 F1800 X69.58 Y71.133 E0.03942
G1 X70.224 Y70.676 E0.07882
G1 X70.911 Y70.287 E0.11821
G1 X71.634 Y69.969 E0.15761
G1 X72.385 Y69.726 E0.19699
G1 X73.157 Y69.56 E0.23639
G1 X73.942 Y69.473 E0.27579
G1 X74.378 Y69.459 E0.29756
G1 X79.524 Y69.439 E0.55429
G1 X80.313 Y69.476 E0.5937
G1 X81.094 Y69.592 E0.63309
G1 X81.859 Y69.787 E0.67248
G1 X82.6 Y70.059 E0.71186
G1 X83.311 Y70.403 E0.75126
G1 X83.983 Y70.818 E0.79067
G1 X84.609 Y71.299 E0.83005
G1 X85.184 Y71.841 E0.86948
G1 X85.701 Y72.437 E0.90884
G1 X86.155 Y73.084 E0.94827
G1 X86.541 Y73.772 E0.98763
G1 X86.856 Y74.497 E1.02707
G1 X87.096 Y75.249 E1.06645
G1 X87.258 Y76.022 E1.10585
G1 X87.342 Y76.807 E1.14524
G1 X87.354 Y77.239 E1.1668
G1 X87.354 Y80.384 E1.3237
G1 X87.314 Y81.173 E1.36312
G1 X87.195 Y81.953 E1.40248
G1 X86.997 Y82.718 E1.44191
G1 X86.723 Y83.458 E1.48128
G1 X86.375 Y84.167 E1.52068
G1 X85.957 Y84.838 E1.56012
G1 X85.518 Y85.411 E1.59613
G1 X82.559 Y88.921 E1.82517
G1 X81.049 Y92.141 E2.0026
G1 X80.422 Y95.647 E2.18029
G1 X80.723 Y99.184 E2.35739
G1 X81.934 Y102.537 E2.53525
G1 X83.967 Y105.456 E2.71272
G1 X86.692 Y107.753 E2.89053
G1 X89.908 Y109.262 E3.06776
G1 X93.413 Y109.889 E3.2454
G1 X96.958 Y109.587 E3.4229
G1 X100.307 Y108.377 E3.60055
G1 X103.225 Y106.345 E3.77795
G1 X105.522 Y103.619 E3.9558
G1 X107.011 Y100.445 E4.13071
G1 X107.652 Y96.911 E4.3099
G1 X107.36 Y93.402 E4.48557
G1 X106.14 Y89.993 E4.66621
G1 X104.116 Y87.087 E4.84289
G1 X102.754 Y85.939 E4.93175
G1 X102.177 Y85.4 E4.97115
G1 X101.657 Y84.805 E5.01057
G1 X101.2 Y84.161 E5.04997
G1 X100.811 Y83.474 E5.08936
G1 X100.493 Y82.751 E5.12876
G1 X100.249 Y82 E5.16816
G1 X100.083 Y81.228 E5.20755
G1 X99.996 Y80.443 E5.24696
G1 X99.982 Y79.975 E5.27031
G1 X99.982 Y77.24 E5.40676
G1 X100.022 Y76.451 E5.44618
G1 X100.141 Y75.671 E5.48554
G1 X100.339 Y74.906 E5.52497
G1 X100.613 Y74.166 E5.56433
G1 X100.961 Y73.457 E5.60374
G1 X101.379 Y72.786 E5.64318
G1 X101.862 Y72.162 E5.68255
G1 X102.405 Y71.589 E5.72193
G1 X103.004 Y71.074 E5.76134
G1 X103.652 Y70.623 E5.80073
G1 X104.343 Y70.239 E5.84017
G1 X105.068 Y69.927 E5.87955
G1 X105.821 Y69.69 E5.91893
G1 X106.595 Y69.531 E5.95835
G1 X107.38 Y69.45 E5.99772
G1 X107.781 Y69.44 E6.01774
G1 X113.674 Y69.439 E6.31174
G1 X114.462 Y69.479 E6.3511
G1 X115.243 Y69.598 E6.39052
G1 X116.007 Y69.796 E6.42989
G1 X116.748 Y70.07 E6.46931
G1 X117.457 Y70.417 E6.50869
G1 X118.279 Y70.942 E6.55735
G1 X118.967 Y71.445 E6.59987
G1 X119.58 Y71.943 E6.63927
G1 X120.139 Y72.5 E6.67864
G1 X120.765 Y73.286 E6.72877
G1 X124.457 Y78.59 E7.05119
G1 X132.334 Y78.592 E7.44417
G1 X133.122 Y78.632 E7.48354
G1 X133.903 Y78.752 E7.52296
G1 X134.667 Y78.95 E7.56233
G1 X135.408 Y79.224 E7.60175
G1 X136.117 Y79.572 E7.64115
G1 X136.787 Y79.99 E7.68055
G1 X137.677 Y80.711 E7.73769
G1 X138.775 Y81.744 E7.8129
G1 X139.322 Y82.314 E7.85232
G1 X139.808 Y82.935 E7.89166
G1 X140.23 Y83.603 E7.93108
G1 X140.581 Y84.31 E7.97046
G1 X140.859 Y85.05 E8.0099
G1 X141.062 Y85.813 E8.04929
G1 X141.185 Y86.593 E8.08868
G1 X141.23 Y87.425 E8.13025
G1 X141.23 Y104.327 E8.9735
G1 X141.216 Y104.794 E8.99681
G1 X141.213 Y104.844 E8.99931
G1 X141.126 Y105.629 E9.03871
G1 X140.96 Y106.401 E9.0781
G1 X140.717 Y107.152 E9.11748
G1 X140.399 Y107.875 E9.15689
G1 X140.009 Y108.562 E9.1963
G1 X139.552 Y109.206 E9.2357
G1 X139.033 Y109.801 E9.27509
G1 X138.716 Y110.11 E9.29718
G1 X138.413 Y110.39 E9.31776
G1 X138.25 Y110.6 E9.33102
G1 X137.707 Y111.173 E9.37041
G1 X137.108 Y111.688 E9.40982
G1 X136.46 Y112.139 E9.4492
G1 X135.769 Y112.523 E9.48864
G1 X135.044 Y112.835 E9.52802
G1 X134.291 Y113.072 E9.56741
G1 X133.517 Y113.231 E9.60683
G1 X132.732 Y113.312 E9.6462
G1 X132.33 Y113.322 E9.66626
G1 X124.773 Y113.322 E10.04328
G1 X124.261 Y114.414 E10.10345
G1 X123.89 Y115.111 E10.14285
G1 X123.45 Y115.767 E10.18225
G1 X123.162 Y116.131 E10.20541
G1 X118.532 Y121.621 E10.56371
G1 X117.993 Y122.198 E10.6031
G1 X117.398 Y122.717 E10.64249
G1 X117.027 Y122.993 E10.66556
G1 X111.139 Y127.094 E11.02354
G1 X110.469 Y127.511 E11.06292
G1 X109.76 Y127.86 E11.10234
G1 X109.331 Y128.029 E11.12534
G1 X102.577 Y130.469 E11.48362
G1 X101.822 Y130.699 E11.52299
G1 X101.047 Y130.852 E11.56241
G1 X100.588 Y130.905 E11.58546
G1 X93.436 Y131.513 E11.94356
G1 X92.646 Y131.54 E11.98299
G1 X91.859 Y131.487 E12.02235
G1 X91.402 Y131.419 E12.0454
G1 X84.333 Y130.155 E12.40367
G1 X83.564 Y129.977 E12.44305
G1 X82.816 Y129.722 E12.48247
G1 X82.393 Y129.539 E12.50547
G1 X75.896 Y126.491 E12.8635
G1 X75.199 Y126.119 E12.90292
G1 X74.543 Y125.68 E12.9423
G1 X74.181 Y125.392 E12.96538
G1 X68.69 Y120.762 E13.32371
G1 X68.113 Y120.223 E13.3631
G1 X67.593 Y119.629 E13.40249
G1 X67.317 Y119.256 E13.42564
G1 X63.294 Y113.478 E13.7769
G1 X63.247 Y113.412 E13.78094
G1 X62.825 Y112.745 E13.82032
G1 X62.472 Y112.039 E13.85969
G1 X62.282 Y111.561 E13.88536
G1 X59.889 Y104.934 E14.23687
G1 X59.609 Y103.971 E14.28691
G1 X59.551 Y103.709 E14.3003
G1 X59.395 Y102.684 E14.35202
G1 X58.798 Y95.667 E14.70337
G1 X58.771 Y94.878 E14.74275
G1 X58.824 Y94.09 E14.78216
G1 X58.892 Y93.633 E14.80521
G1 X60.156 Y86.563 E15.16352
G1 X60.334 Y85.794 E15.2029
G1 X60.589 Y85.047 E15.24228
G1 X60.772 Y84.623 E15.26532
G1 X63.82 Y78.126 E15.62336
G1 X64.192 Y77.429 E15.66277
G1 X64.631 Y76.773 E15.70215
G1 X64.92 Y76.41 E15.7253
G1 X68.446 Y72.23 E15.99813
G1 X68.985 Y71.653 E16.03752
G0 F3600 X69.277 Y71.926
G1 F1800 X69.859 Y71.423 E16.0759
G1 X70.489 Y70.982 E16.11427
G1 X71.162 Y70.609 E16.15265
G1 X71.87 Y70.308 E16.19104
G1 X72.605 Y70.082 E16.2294
G1 X73.36 Y69.934 E16.26778
G1 X74.379 Y69.859 E16.31876
G1 X79.525 Y69.839 E16.5755
G1 X80.294 Y69.876 E16.61391
G1 X81.054 Y69.993 E16.65227
G1 X81.798 Y70.187 E16.69063
G1 X82.518 Y70.458 E16.72901
G1 X83.206 Y70.803 E16.76741
G1 X83.854 Y71.216 E16.80574
G1 X84.456 Y71.695 E16.84413
G1 X85.005 Y72.234 E16.88251
G1 X85.495 Y72.827 E16.92089
G1 X85.921 Y73.467 E16.95924
G1 X86.278 Y74.149 E16.99765
G1 X86.562 Y74.863 E17.03598
G1 X86.771 Y75.603 E17.07435
G1 X86.902 Y76.361 E17.11273
G1 X86.954 Y77.239 E17.15661
G1 X86.954 Y80.384 E17.31351
G1 X86.914 Y81.152 E17.35188
G1 X86.795 Y81.912 E17.39026
G1 X86.597 Y82.655 E17.42862
G1 X86.323 Y83.374 E17.46701
G1 X85.976 Y84.06 E17.50536
G1 X85.56 Y84.707 E17.54374
G1 X85.212 Y85.154 E17.572
G1 X82.219 Y88.705 E17.80369
G1 X80.665 Y92.017 E17.98621
G1 X80.019 Y95.633 E18.16947
G1 X80.328 Y99.268 E18.35148
G1 X81.577 Y102.726 E18.53491
G1 X83.665 Y105.724 E18.71718
G1 X86.475 Y108.094 E18.90057
G1 X89.787 Y109.647 E19.08307
G1 X93.395 Y110.292 E19.26593
G1 X97.042 Y109.982 E19.44854
G1 X100.493 Y108.735 E19.6316
G1 X103.495 Y106.644 E19.81413
G1 X105.862 Y103.837 E19.99731
G1 X107.397 Y100.565 E20.17762
G1 X108.056 Y96.93 E20.36193
G1 X107.755 Y93.316 E20.54286
G1 X106.498 Y89.807 E20.72882
G1 X104.416 Y86.817 E20.91059
G1 X103.012 Y85.633 E21.00222
G1 X102.451 Y85.107 E21.04058
G1 X101.947 Y84.526 E21.07896
G1 X101.506 Y83.896 E21.11732
G1 X101.133 Y83.223 E21.15571
G1 X100.832 Y82.515 E21.19409
G1 X100.606 Y81.78 E21.23246
G1 X100.457 Y81.026 E21.2708
G1 X100.382 Y79.975 E21.32337
G1 X100.382 Y77.24 E21.45982
G1 X100.422 Y76.472 E21.49819
G1 X100.541 Y75.712 E21.53656
G1 X100.739 Y74.969 E21.57493
G1 X101.013 Y74.25 E21.61331
G1 X101.36 Y73.564 E21.65167
G1 X101.776 Y72.917 E21.69004
G1 X102.257 Y72.317 E21.72841
G1 X102.798 Y71.77 E21.76679
G1 X103.393 Y71.282 E21.80518
G1 X104.035 Y70.859 E21.84354
G1 X104.718 Y70.504 E21.88194
G1 X105.433 Y70.223 E21.92027
G1 X106.175 Y70.017 E21.95869
G1 X106.933 Y69.889 E21.99704
G1 X107.781 Y69.84 E22.03942
G1 X113.674 Y69.839 E22.33342
G1 X114.442 Y69.879 E22.37179
G1 X115.202 Y69.998 E22.41017
G1 X115.945 Y70.196 E22.44853
G1 X116.664 Y70.469 E22.4869
G1 X117.35 Y70.816 E22.52525
G1 X118.042 Y71.265 E22.56641
G1 X118.73 Y71.768 E22.60893
G1 X119.327 Y72.254 E22.64733
G1 X119.87 Y72.799 E22.68572
G1 X120.436 Y73.514 E22.73121
G1 X124.248 Y78.99 E23.06409
G1 X132.334 Y78.992 E23.4675
G1 X133.102 Y79.032 E23.50587
G1 X133.862 Y79.152 E23.54425
G1 X134.605 Y79.35 E23.58262
G1 X135.324 Y79.624 E23.621
G1 X136.01 Y79.971 E23.65936
G1 X136.657 Y80.387 E23.69773
G1 X137.403 Y81.002 E23.74597
G1 X138.501 Y82.035 E23.82118
G1 X139.033 Y82.591 E23.85957
G1 X139.504 Y83.198 E23.8979
G1 X139.91 Y83.852 E23.93631
G1 X140.246 Y84.544 E23.97468
G1 X140.508 Y85.267 E24.01305
G1 X140.694 Y86.013 E24.05141
G1 X140.801 Y86.775 E24.0898
G1 X140.83 Y87.425 E24.12226
G1 X140.83 Y104.327 E24.9655
G1 X140.817 Y104.77 E24.98761
G1 X140.814 Y104.82 E24.99011
G1 X140.728 Y105.585 E25.02852
G1 X140.563 Y106.336 E25.06688
G1 X140.321 Y107.066 E25.10525
G1 X140.005 Y107.767 E25.14361
G1 X139.617 Y108.432 E25.18202
G1 X139.163 Y109.052 E25.22036
G1 X138.445 Y109.816 E25.27267
G1 X138.116 Y110.12 E25.29501
G1 X137.855 Y110.445 E25.31581
G1 X137.314 Y110.992 E25.35419
G1 X136.719 Y111.48 E25.39258
G1 X136.077 Y111.903 E25.43094
G1 X135.394 Y112.258 E25.46934
G1 X134.679 Y112.539 E25.50767
G1 X133.937 Y112.745 E25.54609
G1 X133.179 Y112.873 E25.58444
G1 X132.33 Y112.922 E25.62687
G1 X124.519 Y112.922 E26.01656
G1 X123.899 Y114.244 E26.08941
G1 X123.537 Y114.922 E26.12776
G1 X123.106 Y115.559 E26.16613
G1 X122.856 Y115.873 E26.18615
G1 X118.226 Y121.363 E26.54445
G1 X117.7 Y121.924 E26.58281
G1 X117.119 Y122.428 E26.62119
G1 X116.798 Y122.664 E26.64106
G1 X110.91 Y126.765 E26.99905
G1 X110.257 Y127.171 E27.03741
G1 X109.565 Y127.508 E27.07581
G1 X109.195 Y127.653 E27.09564
G1 X102.441 Y130.093 E27.45391
G1 X101.705 Y130.316 E27.49228
G1 X100.95 Y130.462 E27.53064
G1 X100.554 Y130.506 E27.55052
G1 X93.402 Y131.114 E27.90862
G1 X92.633 Y131.14 E27.94701
G1 X91.866 Y131.085 E27.98537
G1 X91.472 Y131.025 E28.00526
G1 X84.403 Y129.761 E28.36352
G1 X83.654 Y129.587 E28.40189
G1 X82.927 Y129.336 E28.44026
G1 X82.563 Y129.176 E28.4601
G1 X76.066 Y126.128 E28.81813
G1 X75.388 Y125.766 E28.85647
G1 X74.751 Y125.335 E28.89485
G1 X74.439 Y125.086 E28.91476
G1 X68.948 Y120.456 E29.2731
G1 X68.386 Y119.931 E29.31146
G1 X67.882 Y119.349 E29.34988
G1 X67.645 Y119.027 E29.36982
G1 X63.651 Y113.291 E29.71853
G1 X63.574 Y113.182 E29.72519
G1 X63.163 Y112.531 E29.7636
G1 X62.823 Y111.842 E29.80193
G1 X62.658 Y111.425 E29.82431
G1 X60.265 Y104.798 E30.17582
G1 X60 Y103.884 E30.2233
G1 X59.942 Y103.622 E30.23669
G1 X59.794 Y102.65 E30.28574
G1 X59.197 Y95.633 E30.63708
G1 X59.171 Y94.865 E30.67542
G1 X59.226 Y94.097 E30.71384
G1 X59.286 Y93.704 E30.73367
G1 X60.55 Y86.634 E31.09199
G1 X60.724 Y85.885 E31.13035
G1 X60.975 Y85.158 E31.16872
G1 X61.135 Y84.793 E31.1886
G1 X64.183 Y78.296 E31.54664
G1 X64.545 Y77.618 E31.58498
G1 X64.976 Y76.981 E31.62335
G1 X65.226 Y76.668 E31.64334
G1 X68.752 Y72.488 E31.91617
G1 X69.277 Y71.926 E31.95453
G0 F3600 X69.57 Y72.2
G1 F1800 X70.137 Y71.713 E31.99182
G1 X70.753 Y71.289 E32.02913
G1 X71.411 Y70.933 E32.06646
G1 X72.103 Y70.649 E32.10378
G1 X72.822 Y70.441 E32.14112
G1 X73.559 Y70.311 E32.17845
G1 X74.381 Y70.259 E32.21955
G1 X79.527 Y70.239 E32.47628
G1 X80.274 Y70.276 E32.5136
G1 X81.013 Y70.393 E32.55092
G1 X81.735 Y70.587 E32.58822
G1 X82.432 Y70.858 E32.62553
G1 X83.097 Y71.202 E32.66289
G1 X83.721 Y71.614 E32.70019
G1 X84.297 Y72.091 E32.7375
G1 X84.82 Y72.627 E32.77486
G1 X85.282 Y73.215 E32.81217
G1 X85.678 Y73.849 E32.84946
G1 X86.005 Y74.522 E32.88679
G1 X86.258 Y75.226 E32.92412
G1 X86.435 Y75.953 E32.96145
G1 X86.533 Y76.695 E32.99879
G1 X86.554 Y77.239 E33.02595
G1 X86.554 Y80.384 E33.18285
G1 X86.514 Y81.131 E33.22017
G1 X86.395 Y81.869 E33.25747
G1 X86.197 Y82.591 E33.29482
G1 X85.924 Y83.287 E33.33212
G1 X85.577 Y83.95 E33.36945
G1 X85.162 Y84.573 E33.4068
G1 X84.906 Y84.896 E33.42736
G1 X81.879 Y88.486 E33.66163
G1 X80.28 Y91.895 E33.84949
G1 X79.616 Y95.611 E34.03782
G1 X79.935 Y99.356 E34.22533
G1 X81.219 Y102.912 E34.41395
G1 X83.367 Y105.997 E34.6015
G1 X86.257 Y108.433 E34.79007
G1 X89.662 Y110.03 E34.9777
G1 X93.378 Y110.695 E35.16604
G1 X97.13 Y110.375 E35.35391
G1 X100.679 Y109.093 E35.54216
G1 X103.768 Y106.941 E35.72999
G1 X106.203 Y104.053 E35.91845
G1 X107.779 Y100.692 E36.10365
G1 X108.458 Y96.95 E36.29339
G1 X108.148 Y93.227 E36.47977
G1 X106.858 Y89.623 E36.67075
G1 X104.714 Y86.544 E36.85793
G1 X103.27 Y85.327 E36.95215
G1 X102.725 Y84.815 E36.98945
G1 X102.237 Y84.248 E37.02677
G1 X101.813 Y83.631 E37.06412
G1 X101.457 Y82.974 E37.1014
G1 X101.173 Y82.281 E37.13877
G1 X100.965 Y81.563 E37.17606
G1 X100.834 Y80.826 E37.21341
G1 X100.782 Y79.975 E37.25594
G1 X100.782 Y77.24 E37.39239
G1 X100.822 Y76.493 E37.42972
G1 X100.941 Y75.755 E37.46701
G1 X101.139 Y75.033 E37.50436
G1 X101.412 Y74.337 E37.54166
G1 X101.759 Y73.674 E37.57899
G1 X102.174 Y73.051 E37.61634
G1 X102.653 Y72.477 E37.65364
G1 X103.19 Y71.956 E37.69097
G1 X103.78 Y71.497 E37.72826
G1 X104.416 Y71.102 E37.76561
G1 X105.09 Y70.778 E37.80292
G1 X105.795 Y70.528 E37.84024
G1 X106.523 Y70.354 E37.87758
G1 X107.265 Y70.259 E37.9149
G1 X107.781 Y70.24 E37.94066
G1 X113.674 Y70.239 E38.23467
G1 X114.421 Y70.279 E38.27199
G1 X115.159 Y70.398 E38.30928
G1 X115.881 Y70.596 E38.34663
G1 X116.577 Y70.869 E38.38393
G1 X117.24 Y71.215 E38.42124
G1 X117.806 Y71.588 E38.45506
G1 X118.494 Y72.091 E38.49758
G1 X119.074 Y72.564 E38.53492
G1 X119.599 Y73.097 E38.57225
G1 X120.108 Y73.743 E38.61328
G1 X124.039 Y79.39 E38.95655
G1 X132.334 Y79.392 E39.37039
G1 X133.081 Y79.432 E39.40771
G1 X133.819 Y79.552 E39.44501
G1 X134.541 Y79.75 E39.48236
G1 X135.237 Y80.023 E39.51966
G1 X135.9 Y80.369 E39.55697
G1 X136.522 Y80.785 E39.5943
G1 X137.129 Y81.294 E39.63382
G1 X138.227 Y82.327 E39.70904
G1 X138.743 Y82.868 E39.74633
G1 X139.199 Y83.461 E39.78366
G1 X139.589 Y84.099 E39.82096
G1 X139.909 Y84.775 E39.85827
G1 X140.155 Y85.482 E39.89562
G1 X140.324 Y86.21 E39.93291
G1 X140.414 Y86.953 E39.97025
G1 X140.43 Y87.425 E39.99381
G1 X140.43 Y104.327 E40.83705
G1 X140.417 Y104.746 E40.85797
G1 X140.414 Y104.796 E40.86047
G1 X140.33 Y105.54 E40.89782
G1 X140.166 Y106.269 E40.9351
G1 X139.926 Y106.978 E40.97244
G1 X139.611 Y107.657 E41.00979
G1 X139.226 Y108.298 E41.04709
G1 X138.774 Y108.894 E41.08441
G1 X138.173 Y109.522 E41.12778
G1 X137.837 Y109.832 E41.15058
G1 X137.459 Y110.285 E41.18002
G1 X136.922 Y110.806 E41.21735
G1 X136.332 Y111.265 E41.25464
G1 X135.696 Y111.66 E41.29199
G1 X135.022 Y111.984 E41.3293
G1 X134.317 Y112.234 E41.36662
G1 X133.589 Y112.408 E41.40396
G1 X132.847 Y112.503 E41.44128
G1 X132.33 Y112.522 E41.46709
G1 X124.265 Y112.522 E41.86946
G1 X123.537 Y114.074 E41.95498
G1 X123.183 Y114.733 E41.9923
G1 X122.55 Y115.615 E42.04647
G1 X117.92 Y121.105 E42.40476
G1 X117.408 Y121.65 E42.44207
G1 X116.57 Y122.336 E42.4961
G1 X110.682 Y126.437 E42.85408
G1 X110.046 Y126.831 E42.89141
G1 X109.059 Y127.277 E42.94545
G1 X102.305 Y129.717 E43.30372
G1 X101.589 Y129.933 E43.34103
G1 X100.52 Y130.108 E43.39507
G1 X93.368 Y130.716 E43.75317
G1 X92.62 Y130.739 E43.79051
G1 X91.543 Y130.632 E43.84451
G1 X84.474 Y129.368 E44.20277
G1 X83.746 Y129.197 E44.24008
G1 X82.733 Y128.814 E44.29411
G1 X76.236 Y125.766 E44.65215
G1 X75.577 Y125.413 E44.68944
G1 X74.697 Y124.78 E44.74353
G1 X69.206 Y120.15 E45.10186
G1 X68.66 Y119.638 E45.1392
G1 X67.973 Y118.799 E45.1933
G1 X63.95 Y113.021 E45.54456
G1 X63.901 Y112.951 E45.54882
G1 X63.502 Y112.318 E45.58615
G1 X63.174 Y111.646 E45.62346
