;FLAVOR:Marlin
;TIME:2385
;Filament used: 3.73282m
;Layer height: 0.3
;MINX:58.771
;MINY:68.959
;MINZ:0.3
;MAXX:141.23
;MAXY:131.04
;MAXZ:60
;Generated with Cura_SteamEngine 4.1.0
M140 S60
M105
M190 S60
M104 S200
M105
M109 S200
M82 ;absolute extrusion mode
G21 ;metric values
G90 ;absolute positioning
M82 ;set extruder to absolute mode
M107 ;start with the fan off
G28 X0 Y0 ;move X/Y to min endstops
G28 Z0 ;move Z to min endstops
G1 Z15.0 F9000 ;move the platform down 15mm
G92 E0 ;zero the extruded length
G1 F200 E3 ;extrude 3mm of feed stock
G92 E0 ;zero the extruded length again
G1 F9000
;Put printing message on LCD screen
M117 Printing...
G92 E0
G92 E0
G1 F1500 E-6.5
;LAYER_COUNT:200
;LAYER:0
M107
G0 F3600 X68.985 Y71.153 Z0.3
;TYPE:SKIRT
G1 F1500 E0
G1 F1800 X69.58 Y70.633 E0.03942
G1 X70.224 Y70.176 E0.07882
G1 X70.911 Y69.787 E0.11821
G1 X71.634 Y69.469 E0.15761
G1 X72.385 Y69.226 E0.19699
G1 X73.157 Y69.06 E0.23639
G1 X73.942 Y68.973 E0.27579
G1 X74.408 Y68.959 E0.29905
G1 X79.554 Y68.959 E0.55579
G1 X80.343 Y68.999 E0.5952
G1 X81.123 Y69.118 E0.63457
G1 X81.888 Y69.316 E0.67399
G1 X82.628 Y69.59 E0.71336
G1 X83.337 Y69.938 E0.75276
G1 X84.008 Y70.356 E0.7922
G1 X84.632 Y70.839 E0.83157
G1 X85.205 Y71.382 E0.87095
G1 X85.72 Y71.981 E0.91036
G1 X86.171 Y72.629 E0.94975
G1 X86.555 Y73.32 E0.98919
G1 X86.867 Y74.045 E1.02857
G1 X87.104 Y74.798 E1.06795
G1 X87.263 Y75.572 E1.10738
G1 X87.344 Y76.357 E1.14675
G1 X87.354 Y76.759 E1.16681
G1 X87.354 Y79.884 E1.32272
G1 X87.314 Y80.673 E1.36213
G1 X87.195 Y81.453 E1.40149
G1 X86.997 Y82.218 E1.44092
G1 X86.723 Y82.958 E1.48029
G1 X86.375 Y83.667 E1.51969
G1 X85.957 Y84.338 E1.55913
G1 X85.517 Y84.913 E1.59525
G1 X82.56 Y88.419 E1.82407
G1 X81.049 Y91.641 E2.00162
G1 X80.422 Y95.147 E2.17931
G1 X80.723 Y98.684 E2.35641
G1 X81.934 Y102.037 E2.53427
G1 X83.967 Y104.956 E2.71174
G1 X86.692 Y107.253 E2.88954
G1 X89.908 Y108.762 E3.06677
G1 X93.413 Y109.389 E3.24441
G1 X96.958 Y109.087 E3.42192
G1 X100.307 Y107.877 E3.59957
G1 X103.225 Y105.845 E3.77697
G1 X105.522 Y103.119 E3.95481
G1 X107.011 Y99.946 E4.12968
G1 X107.658 Y96.382 E4.31039
G1 X107.362 Y92.898 E4.48484
G1 X106.143 Y89.498 E4.66504
G1 X104.116 Y86.587 E4.84201
G1 X102.754 Y85.439 E4.93088
G1 X102.177 Y84.9 E4.97027
G1 X101.657 Y84.305 E5.00969
G1 X101.2 Y83.661 E5.04909
G1 X100.811 Y82.974 E5.08848
G1 X100.493 Y82.251 E5.12788
G1 X100.249 Y81.5 E5.16728
G1 X100.083 Y80.728 E5.20667
G1 X99.996 Y79.943 E5.24608
G1 X99.982 Y79.475 E5.26944
G1 X99.982 Y76.759 E5.40494
G1 X100.022 Y75.97 E5.44435
G1 X100.141 Y75.19 E5.48372
G1 X100.339 Y74.425 E5.52314
G1 X100.613 Y73.685 E5.56251
G1 X100.961 Y72.976 E5.60191
G1 X101.379 Y72.305 E5.64135
G1 X101.862 Y71.681 E5.68072
G1 X102.405 Y71.108 E5.7201
G1 X103.004 Y70.593 E5.75952
G1 X103.652 Y70.142 E5.7989
G1 X104.343 Y69.758 E5.83834
G1 X105.068 Y69.446 E5.87772
G1 X105.821 Y69.209 E5.9171
G1 X106.595 Y69.05 E5.95653
G1 X107.38 Y68.969 E5.9959
G1 X107.782 Y68.959 E6.01596
G1 X113.788 Y68.959 E6.3156
G1 X114.577 Y68.999 E6.35501
G1 X115.357 Y69.118 E6.39438
G1 X116.122 Y69.316 E6.4338
G1 X116.862 Y69.59 E6.47317
G1 X117.571 Y69.938 E6.51257
G1 X118.242 Y70.356 E6.55201
G1 X118.805 Y70.787 E6.58739
G1 X119.38 Y71.27 E6.62485
G1 X119.958 Y71.807 E6.66421
G1 X120.479 Y72.401 E6.70363
G1 X120.764 Y72.785 E6.72749
G1 X124.458 Y78.09 E7.05
G1 X132.334 Y78.092 E7.44294
G1 X133.122 Y78.132 E7.4823
G1 X133.903 Y78.252 E7.52172
G1 X134.667 Y78.45 E7.5611
G1 X135.408 Y78.724 E7.60051
G1 X136.117 Y79.072 E7.63992
G1 X136.787 Y79.49 E7.67931
G1 X137.677 Y80.211 E7.73646
G1 X138.775 Y81.244 E7.81167
G1 X139.322 Y81.814 E7.85108
G1 X139.808 Y82.435 E7.89043
G1 X140.23 Y83.103 E7.92985
G1 X140.581 Y83.81 E7.96923
G1 X140.859 Y84.55 E8.00866
G1 X141.062 Y85.313 E8.04805
G1 X141.185 Y86.093 E8.08745
G1 X141.23 Y86.925 E8.12902
G1 X141.23 Y103.827 E8.97226
G1 X141.216 Y104.294 E8.99557
G1 X141.213 Y104.344 E8.99807
G1 X141.126 Y105.129 E9.03747
G1 X140.96 Y105.901 E9.07687
G1 X140.717 Y106.652 E9.11625
G1 X140.399 Y107.375 E9.15566
G1 X140.009 Y108.062 E9.19507
G1 X139.552 Y108.706 E9.23447
G1 X139.033 Y109.301 E9.27386
G1 X138.713 Y109.612 E9.29612
G1 X137.615 Y110.624 E9.37062
G1 X137.008 Y111.13 E9.41004
G1 X136.353 Y111.571 E9.44944
G1 X135.657 Y111.943 E9.48881
G1 X134.927 Y112.244 E9.5282
G1 X134.17 Y112.469 E9.5676
G1 X133.394 Y112.616 E9.60701
G1 X132.329 Y112.689 E9.66026
G1 X124.835 Y112.689 E10.03414
G1 X124.261 Y113.914 E10.10163
G1 X123.89 Y114.611 E10.14103
G1 X123.45 Y115.267 E10.18043
G1 X123.162 Y115.631 E10.20359
G1 X118.532 Y121.121 E10.56189
G1 X117.993 Y121.698 E10.60128
G1 X117.398 Y122.217 E10.64067
G1 X117.027 Y122.493 E10.66374
G1 X111.139 Y126.594 E11.02172
G1 X110.469 Y127.011 E11.0611
G1 X109.76 Y127.36 E11.10052
G1 X109.331 Y127.529 E11.12352
G1 X102.577 Y129.969 E11.4818
G1 X101.822 Y130.199 E11.52117
G1 X101.047 Y130.352 E11.56059
G1 X100.588 Y130.405 E11.58364
G1 X93.436 Y131.013 E11.94174
G1 X92.646 Y131.04 E11.98118
G1 X91.859 Y130.987 E12.02053
G1 X91.402 Y130.919 E12.04358
G1 X84.333 Y129.655 E12.40185
G1 X83.564 Y129.477 E12.44123
G1 X82.816 Y129.222 E12.48065
G1 X82.393 Y129.039 E12.50365
G1 X75.896 Y125.991 E12.86168
G1 X75.199 Y125.619 E12.9011
G1 X74.543 Y125.18 E12.94048
G1 X74.181 Y124.892 E12.96356
G1 X68.69 Y120.262 E13.32189
G1 X68.113 Y119.723 E13.36128
G1 X67.593 Y119.129 E13.40067
G1 X67.317 Y118.756 E13.42382
G1 X63.294 Y112.978 E13.77508
G1 X63.247 Y112.912 E13.77912
G1 X62.825 Y112.245 E13.8185
G1 X62.472 Y111.539 E13.85788
G1 X62.282 Y111.061 E13.88354
G1 X59.889 Y104.434 E14.23506
G1 X59.609 Y103.471 E14.28509
G1 X59.551 Y103.209 E14.29848
G1 X59.395 Y102.184 E14.3502
G1 X58.798 Y95.167 E14.70155
G1 X58.771 Y94.378 E14.74093
G1 X58.824 Y93.59 E14.78034
G1 X58.892 Y93.133 E14.80339
G1 X60.156 Y86.063 E15.1617
G1 X60.334 Y85.294 E15.20108
G1 X60.589 Y84.547 E15.24046
G1 X60.772 Y84.123 E15.2635
G1 X63.82 Y77.626 E15.62154
G1 X64.192 Y76.929 E15.66095
G1 X64.631 Y76.273 E15.70033
G1 X64.92 Y75.91 E15.72348
G1 X68.446 Y71.73 E15.99631
G1 X68.985 Y71.153 E16.0357
G0 F3600 X69.277 Y71.426
G1 F1800 X69.859 Y70.923 E16.07408
G1 X70.489 Y70.482 E16.11245
G1 X71.162 Y70.109 E16.15083
G1 X71.87 Y69.808 E16.18922
G1 X72.605 Y69.582 E16.22758
G1 X73.36 Y69.434 E16.26596
G1 X74.408 Y69.359 E16.31838
G1 X79.554 Y69.359 E16.57512
G1 X80.322 Y69.399 E16.61348
G1 X81.082 Y69.518 E16.65186
G1 X81.825 Y69.716 E16.69023
G1 X82.544 Y69.99 E16.72861
G1 X83.23 Y70.337 E16.76697
G1 X83.877 Y70.753 E16.80534
G1 X84.477 Y71.234 E16.84371
G1 X85.024 Y71.775 E16.88209
G1 X85.512 Y72.37 E16.92048
G1 X85.935 Y73.012 E16.95884
G1 X86.29 Y73.695 E16.99724
G1 X86.571 Y74.41 E17.03557
G1 X86.777 Y75.152 E17.07399
G1 X86.905 Y75.91 E17.11234
G1 X86.954 Y76.759 E17.15477
G1 X86.954 Y79.884 E17.31067
G1 X86.914 Y80.652 E17.34904
G1 X86.795 Y81.412 E17.38742
G1 X86.597 Y82.155 E17.42578
G1 X86.323 Y82.874 E17.46417
G1 X85.976 Y83.56 E17.50252
G1 X85.56 Y84.207 E17.5409
G1 X85.211 Y84.655 E17.56923
G1 X82.22 Y88.201 E17.80067
G1 X80.665 Y91.517 E17.98339
G1 X80.019 Y95.133 E18.16665
G1 X80.328 Y98.768 E18.34866
G1 X81.577 Y102.226 E18.53209
G1 X83.665 Y105.224 E18.71436
G1 X86.475 Y107.594 E18.89776
G1 X89.787 Y109.147 E19.08026
G1 X93.395 Y109.792 E19.26311
G1 X97.042 Y109.482 E19.44572
G1 X100.493 Y108.235 E19.62879
G1 X103.495 Y106.144 E19.81131
G1 X105.862 Y103.337 E19.99449
G1 X107.397 Y100.064 E20.17485
G1 X108.061 Y96.401 E20.36057
G1 X107.757 Y92.816 E20.54007
G1 X106.499 Y89.308 E20.726
G1 X104.416 Y86.317 E20.90784
G1 X103.012 Y85.133 E20.99947
G1 X102.451 Y84.607 E21.03784
G1 X101.947 Y84.026 E21.07621
G1 X101.506 Y83.396 E21.11458
G1 X101.133 Y82.723 E21.15297
G1 X100.832 Y82.015 E21.19135
G1 X100.606 Y81.28 E21.22971
G1 X100.457 Y80.526 E21.26806
G1 X100.382 Y79.475 E21.32062
G1 X100.382 Y76.759 E21.45613
G1 X100.422 Y75.991 E21.49449
G1 X100.541 Y75.231 E21.53287
G1 X100.739 Y74.488 E21.57123
G1 X101.013 Y73.769 E21.60962
G1 X101.36 Y73.083 E21.64798
G1 X101.776 Y72.436 E21.68635
G1 X102.257 Y71.836 E21.72472
G1 X102.798 Y71.289 E21.7631
G1 X103.393 Y70.801 E21.80149
G1 X104.035 Y70.378 E21.83985
G1 X104.718 Y70.023 E21.87825
G1 X105.433 Y69.742 E21.91658
G1 X106.175 Y69.536 E21.955
G1 X106.933 Y69.408 E21.99335
G1 X107.782 Y69.359 E22.03578
G1 X113.788 Y69.359 E22.33542
G1 X114.556 Y69.399 E22.37378
G1 X115.316 Y69.518 E22.41216
G1 X116.059 Y69.716 E22.45052
G1 X116.778 Y69.99 E22.48891
G1 X117.464 Y70.337 E22.52727
G1 X118.111 Y70.753 E22.56564
G1 X118.548 Y71.093 E22.59327
G1 X119.123 Y71.576 E22.63073
G1 X119.685 Y72.1 E22.66906
G1 X120.19 Y72.681 E22.70747
G1 X120.436 Y73.013 E22.72809
G1 X124.25 Y78.49 E23.06106
G1 X132.334 Y78.492 E23.46437
G1 X133.102 Y78.532 E23.50274
G1 X133.862 Y78.652 E23.54113
G1 X134.605 Y78.85 E23.57949
G1 X135.324 Y79.124 E23.61788
G1 X136.01 Y79.471 E23.65623
G1 X136.657 Y79.887 E23.6946
G1 X137.403 Y80.502 E23.74284
G1 X138.501 Y81.535 E23.81805
G1 X139.033 Y82.091 E23.85644
G1 X139.504 Y82.698 E23.89477
G1 X139.91 Y83.352 E23.93318
G1 X140.246 Y84.044 E23.97156
G1 X140.508 Y84.767 E24.00992
G1 X140.694 Y85.513 E24.04828
G1 X140.801 Y86.275 E24.08667
G1 X140.83 Y86.925 E24.11913
G1 X140.83 Y103.827 E24.96237
G1 X140.817 Y104.27 E24.98448
G1 X140.814 Y104.32 E24.98698
G1 X140.728 Y105.085 E25.02539
G1 X140.563 Y105.836 E25.06375
G1 X140.321 Y106.566 E25.10212
G1 X140.005 Y107.267 E25.14048
G1 X139.617 Y107.932 E25.17889
G1 X139.163 Y108.552 E25.21723
G1 X138.442 Y109.318 E25.26971
G1 X137.344 Y110.33 E25.34421
G1 X136.752 Y110.822 E25.38261
G1 X136.113 Y111.249 E25.42096
G1 X135.432 Y111.607 E25.45934
G1 X134.718 Y111.893 E25.49771
G1 X133.978 Y112.103 E25.53609
G1 X133.22 Y112.235 E25.57448
G1 X132.329 Y112.289 E25.61901
G1 X124.581 Y112.289 E26.00556
G1 X123.899 Y113.744 E26.08573
G1 X123.537 Y114.422 E26.12407
G1 X123.106 Y115.059 E26.16244
G1 X122.856 Y115.373 E26.18247
G1 X118.226 Y120.863 E26.54077
G1 X117.7 Y121.424 E26.57913
G1 X117.119 Y121.928 E26.61751
G1 X116.798 Y122.164 E26.63738
G1 X110.91 Y126.265 E26.99537
G1 X110.257 Y126.671 E27.03373
G1 X109.565 Y127.008 E27.07213
G1 X109.195 Y127.153 E27.09195
G1 X102.441 Y129.593 E27.45023
G1 X101.705 Y129.816 E27.4886
G1 X100.95 Y129.962 E27.52696
G1 X100.554 Y130.006 E27.54684
G1 X93.402 Y130.614 E27.90494
G1 X92.633 Y130.64 E27.94333
G1 X91.866 Y130.585 E27.98169
G1 X91.472 Y130.525 E28.00158
G1 X84.403 Y129.261 E28.35984
G1 X83.654 Y129.087 E28.39821
G1 X82.927 Y128.836 E28.43658
G1 X82.563 Y128.676 E28.45641
G1 X76.066 Y125.628 E28.81445
G1 X75.388 Y125.266 E28.85279
G1 X74.751 Y124.835 E28.89116
G1 X74.439 Y124.586 E28.91108
G1 X68.948 Y119.956 E29.26941
G1 X68.386 Y119.431 E29.30778
G1 X67.882 Y118.849 E29.34619
G1 X67.645 Y118.527 E29.36614
G1 X63.651 Y112.791 E29.71485
G1 X63.574 Y112.682 E29.72151
G1 X63.163 Y112.031 E29.75992
G1 X62.823 Y111.342 E29.79825
G1 X62.658 Y110.925 E29.82062
G1 X60.265 Y104.298 E30.17214
G1 X60 Y103.384 E30.21962
G1 X59.942 Y103.122 E30.23301
G1 X59.794 Y102.15 E30.28206
G1 X59.197 Y95.133 E30.6334
G1 X59.171 Y94.365 E30.67174
G1 X59.226 Y93.597 E30.71015
G1 X59.286 Y93.204 E30.72999
G1 X60.55 Y86.134 E31.0883
G1 X60.724 Y85.385 E31.12667
G1 X60.975 Y84.658 E31.16504
G1 X61.135 Y84.293 E31.18492
G1 X64.183 Y77.796 E31.54296
G1 X64.545 Y77.118 E31.5813
G1 X64.976 Y76.481 E31.61967
G1 X65.226 Y76.168 E31.63966
G1 X68.752 Y71.988 E31.91248
G1 X69.277 Y71.426 E31.95085
G0 F3600 X69.57 Y71.7
G1 F1800 X70.137 Y71.213 E31.98814
G1 X70.753 Y70.789 E32.02545
G1 X71.411 Y70.433 E32.06278
G1 X72.103 Y70.149 E32.10009
G1 X72.822 Y69.941 E32.13744
G1 X73.559 Y69.811 E32.17477
G1 X74.408 Y69.759 E32.21721
G1 X79.554 Y69.759 E32.47394
G1 X80.301 Y69.799 E32.51127
G1 X81.039 Y69.918 E32.54856
G1 X81.761 Y70.116 E32.58591
G1 X82.457 Y70.389 E32.62321
G1 X83.12 Y70.736 E32.66054
G1 X83.743 Y71.151 E32.69789
G1 X84.317 Y71.63 E32.73519
G1 X84.838 Y72.167 E32.77252
G1 X85.297 Y72.757 E32.80981
G1 X85.692 Y73.393 E32.84716
G1 X86.016 Y74.067 E32.88447
G1 X86.266 Y74.772 E32.92179
G1 X86.44 Y75.5 E32.95913
G1 X86.535 Y76.242 E32.99645
G1 X86.554 Y76.759 E33.02226
G1 X86.554 Y79.884 E33.17817
G1 X86.514 Y80.631 E33.21549
G1 X86.395 Y81.369 E33.25279
G1 X86.197 Y82.091 E33.29014
G1 X85.924 Y82.787 E33.32744
G1 X85.577 Y83.45 E33.36477
G1 X85.162 Y84.073 E33.40212
G1 X84.905 Y84.397 E33.42275
G1 X81.881 Y87.982 E33.65674
G1 X80.28 Y91.395 E33.84482
G1 X79.616 Y95.111 E34.03314
G1 X79.935 Y98.856 E34.22066
G1 X81.219 Y102.412 E34.40928
G1 X83.367 Y105.497 E34.59682
G1 X86.257 Y107.933 E34.78539
G1 X89.662 Y109.53 E34.97303
G1 X93.378 Y110.195 E35.16136
G1 X97.13 Y109.875 E35.34923
G1 X100.679 Y108.593 E35.53749
G1 X103.768 Y106.441 E35.72531
G1 X106.203 Y103.553 E35.91377
G1 X107.779 Y100.193 E36.09893
G1 X108.464 Y96.42 E36.29024
G1 X108.15 Y92.727 E36.47515
G1 X106.859 Y89.124 E36.6661
G1 X104.714 Y86.044 E36.85335
G1 X103.27 Y84.827 E36.94757
G1 X102.725 Y84.315 E36.98487
G1 X102.237 Y83.748 E37.02219
G1 X101.813 Y83.131 E37.05954
G1 X101.457 Y82.474 E37.09683
G1 X101.173 Y81.781 E37.13419
G1 X100.965 Y81.063 E37.17148
G1 X100.834 Y80.326 E37.20883
G1 X100.782 Y79.475 E37.25136
G1 X100.782 Y76.759 E37.38687
G1 X100.822 Y76.012 E37.42419
G1 X100.941 Y75.274 E37.46148
G1 X101.139 Y74.552 E37.49883
G1 X101.412 Y73.856 E37.53613
G1 X101.759 Y73.193 E37.57347
G1 X102.174 Y72.57 E37.61081
G1 X102.653 Y71.996 E37.64811
G1 X103.19 Y71.475 E37.68544
G1 X103.78 Y71.016 E37.72273
G1 X104.416 Y70.621 E37.76008
G1 X105.09 Y70.297 E37.79739
G1 X105.795 Y70.047 E37.83471
G1 X106.523 Y69.873 E37.87206
G1 X107.265 Y69.778 E37.90938
G1 X107.782 Y69.759 E37.93519
G1 X113.788 Y69.759 E38.23483
G1 X114.535 Y69.799 E38.27215
G1 X115.273 Y69.918 E38.30944
G1 X115.995 Y70.116 E38.34679
G1 X116.691 Y70.389 E38.38409
G1 X117.354 Y70.736 E38.42143
G1 X117.977 Y71.151 E38.45877
G1 X118.29 Y71.399 E38.4787
G1 X118.865 Y71.882 E38.51616
G1 X119.412 Y72.393 E38.55351
G1 X120.108 Y73.242 E38.60828
G1 X124.041 Y78.89 E38.95164
G1 X132.334 Y78.892 E39.36538
G1 X133.081 Y78.932 E39.40271
G1 X133.819 Y79.052 E39.44001
G1 X134.541 Y79.25 E39.47736
G1 X135.237 Y79.523 E39.51466
G1 X135.9 Y79.869 E39.55197
G1 X136.522 Y80.285 E39.5893
G1 X137.129 Y80.794 E39.62882
G1 X138.227 Y81.827 E39.70403
G1 X138.743 Y82.368 E39.74133
G1 X139.199 Y82.961 E39.77865
G1 X139.589 Y83.599 E39.81596
G1 X139.909 Y84.275 E39.85327
G1 X140.155 Y84.982 E39.89062
G1 X140.324 Y85.71 E39.92791
G1 X140.414 Y86.453 E39.96524
G1 X140.43 Y86.925 E39.98881
G1 X140.43 Y103.827 E40.83205
G1 X140.417 Y104.246 E40.85296
G1 X140.414 Y104.296 E40.85546
G1 X140.33 Y105.04 E40.89282
G1 X140.166 Y105.769 E40.9301
G1 X139.926 Y106.478 E40.96744
G1 X139.611 Y107.157 E41.00478
G1 X139.226 Y107.798 E41.04209
G1 X138.774 Y108.394 E41.07941
G1 X138.171 Y109.024 E41.12291
G1 X137.073 Y110.036 E41.19741
G1 X136.497 Y110.513 E41.23472
G1 X135.873 Y110.926 E41.27206
G1 X135.208 Y111.269 E41.30939
G1 X134.511 Y111.54 E41.3467
G1 X133.789 Y111.735 E41.38401
G1 X133.05 Y111.852 E41.42134
G1 X132.329 Y111.889 E41.45735
G1 X124.327 Y111.889 E41.85657
G1 X123.537 Y113.574 E41.94942
G1 X123.183 Y114.233 E41.98674
G1 X122.55 Y115.115 E42.0409
G1 X117.92 Y120.605 E42.3992
G1 X117.408 Y121.15 E42.43651
G1 X116.57 Y121.836 E42.49054
G1 X110.682 Y125.937 E42.84852
G1 X110.046 Y126.331 E42.88585
G1 X109.059 Y126.777 E42.93988
G1 X102.305 Y129.217 E43.29816
G1 X101.589 Y129.433 E43.33547
G1 X100.52 Y129.608 E43.38951
G1 X93.368 Y130.216 E43.74761
G1 X92.62 Y130.239 E43.78495
G1 X91.543 Y130.132 E43.83894
G1 X84.474 Y128.868 E44.19721
G1 X83.746 Y128.697 E44.23452
G1 X82.733 Y128.314 E44.28855
G1 X76.236 Y125.266 E44.64658
G1 X75.577 Y124.913 E44.68388
G1 X74.697 Y124.28 E44.73796
G1 X69.206 Y119.65 E45.0963
G1 X68.66 Y119.138 E45.13364
G1 X67.973 Y118.299 E45.18774
G1 X63.95 Y112.521 E45.539
G1 X63.901 Y112.451 E45.54326
G1 X63.502 Y111.818 E45.58059
G1 X63.174 Y111.146 E45.6179
G1 X63.034 Y110.789 E45.63703
G1 X60.641 Y104.162 E45.98855
G1 X60.39 Y103.298 E46.03343
G1 X60.332 Y103.036 E46.04682
G1 X60.192 Y102.116 E46.09325
